!!! OTL: Literature32
!!! Chapter: 5
!!! Section: I
!!! Page: 351
!!! Mode: 
!!! Encoder: DJB
**kern
*staff1
*I"Piano
=1-
*clefC3
*k[b-]
*d:
*M4/4
4r
4r
4r
4a\
=2
4dd\
4dd\
4cc\
8f\L
8g\J
=3
2a\
8d\
8r
4d\
=4
4e\
4f\
8a\L
8g\
8f\
8g\J
=5
4.a\
16cc\LL
16b-\JJ
8a\
8r
4a\
=6
4dd\
4dd\
4cc\
8f\L
8g\J
=7
2a\
4b-\
4a\
=8
4g\
4f\
4e\
4e\
=9
!!linebreak:original
2d\
2r
==
*-
